app/ui/static/images/icons/solid/document-text.svg

<svg width="20" height="20" viewBox="0 0 20 20" fill="none" xmlns="http://www.w3.org/2000/svg">
<path fill-rule="evenodd" clip-rule="evenodd" d="M4.5 2C3.67157 2 3 2.67157 3 3.5V16.5C3 17.3284 3.67157 18 4.5 18H15.5C16.3284 18 17 17.3284 17 16.5V7.62132C17 7.2235 16.842 6.84197 16.5607 6.56066L12.4393 2.43934C12.158 2.15804 11.7765 2 11.3787 2H4.5ZM6.75 10.5C6.33579 10.5 6 10.8358 6 11.25C6 11.6642 6.33579 12 6.75 12H13.25C13.6642 12 14 11.6642 14 11.25C14 10.8358 13.6642 10.5 13.25 10.5H6.75ZM6.75 13.5C6.33579 13.5 6 13.8358 6 14.25C6 14.6642 6.33579 15 6.75 15H13.25C13.6642 15 14 14.6642 14 14.25C14 13.8358 13.6642 13.5 13.25 13.5H6.75Z" fill="#0F172A"/>
</svg>

<svg xmlns="http://www.w3.org/2000/svg" viewBox="0 0 20 20" fill="currentColor" aria-hidden="true">
  <path fill-rule="evenodd" d="M4.5 2A1.5 1.5 0 003 3.5v13A1.5 1.5 0 004.5 18h11a1.5 1.5 0 001.5-1.5V7.621a1.5 1.5 0 00-.44-1.06l-4.12-4.122A1.5 1.5 0 0011.378 2H4.5zm2.25 8.5a.75.75 0 000 1.5h6.5a.75.75 0 000-1.5h-6.5zm0 3a.75.75 0 000 1.5h6.5a.75.75 0 000-1.5h-6.5z" clip-rule="evenodd"/>
</svg>
